svg/color/t.svg

<svg width="64" height="65" viewBox="0 0 64 65" fill="none" xmlns="http://www.w3.org/2000/svg">
<g clip-path="url(#clip0_11313_5438)">
<rect y="0.303711" width="64" height="64" rx="32" fill="white"/>
<rect width="64" height="64" transform="translate(0 0.303711)" fill="#7D00FF"/>
<path d="M51.7967 21.8895H38.6706V26.3077H51.7967V21.8895ZM29.9196 26.3077H25.5442V30.7258H29.9196V26.3077ZM25.5442 48.3984H29.9196V35.1439H25.5442V48.3984ZM34.295 26.3077V30.7258H38.6706V26.3077H34.295ZM34.295 48.3984H38.6706V35.1439H34.295V48.3984ZM34.295 21.8895H29.9196V26.3077H34.295V21.8895ZM12.415 21.8895V26.3077H25.5442V21.8895H12.415ZM51.7997 35.1439V30.7258H38.6706V35.1439H51.7997ZM29.9225 30.7258V35.1439H34.295V30.7258H29.9225ZM12.4179 30.7258V35.1439H25.5471V30.7258H12.4179Z" fill="white"/>
</g>
<rect x="0.5" y="0.803711" width="63" height="63" rx="31.5" stroke="#070B14" stroke-opacity="0.15"/>
<defs>
<clipPath id="clip0_11313_5438">
<rect y="0.303711" width="64" height="64" rx="32" fill="white"/>
</clipPath>
</defs>
</svg>

<svg xmlns="http://www.w3.org/2000/svg" width="64" height="65" fill="none" viewBox="0 0 64 65"><g clip-path="url(#t_svg-a)"><rect width="64" height="64" y=".304" fill="#fff" rx="32"/><path fill="#7D00FF" d="M0 .304h64v64H0z"/><path fill="#fff" d="M51.797 21.89H38.67v4.418h13.126zM29.92 26.308h-4.376v4.418h4.376zm-4.376 22.09h4.376V35.144h-4.376zm8.751-22.09v4.418h4.376v-4.418zm0 22.09h4.376V35.144h-4.376zm0-26.508H29.92v4.418h4.375zm-21.88 0v4.418h13.13V21.89zM51.8 35.144v-4.418H38.67v4.418zm-21.877-4.418v4.418h4.372v-4.418zm-17.505 0v4.418h13.13v-4.418z"/></g><rect width="63" height="63" x=".5" y=".804" stroke="#070B14" stroke-opacity=".15" rx="31.5"/><defs><clipPath id="t_svg-a"><rect width="64" height="64" y=".304" fill="#fff" rx="32"/></clipPath></defs></svg>
